X:23
T:Seamus Tansey
R:reel
D:Brian Rooney
S:Clare FM
Z:psc -  http://www.cranfordpub.com
L:1/8
Q:333
M:C|
K:Emin
BAeA BAed|BE ~E2 GBdB|BAeA BAeg|({a}g)edB BAA2|
BAeA Bged|BE ~E2 G3 B|AGEF GBeg|({a}g)edB BAA||
||g|ea ~a2 bgag|({a}g)edB GABd|ea({b}a)f gabg|({a}g)edB BAAg|
ea({b}a)e (3aba eg|({a}g)edB G2 (3Bcd|eABA egag|({a}g)edB BA A2|]
